X:144
T: IM GRUEN ERWACHT DER FRISCHE MUTH
N: B0173
O: Europa, Mitteleuropa, Deutschland
R: Natur -, Wander - Lied
M: 2/4
L: 1/16
K: A
E2 | c3BA2B2 | c3BA2
A2 | F3Bc2B2 | G4z2
E2 | d3cB2A2 | G2F2E2
d2 | c6B2 | A8 | A2G2C2B2 | A4z2

@@@ Tune index: 1947
